X:2369
T:The Fathaby jig 
C:Traditional
O:Isle of Man
N:Like Irish tune Biddy of Sligo.
S:Collected by Mona Douglas
Z:Kiaull Vannin 369 
M:6/8 
Q:150 
K:G 
G/A/|B2D DB,D|E2E D2d|B2D DB,D|c2 A2d/c/|B2D DB,D|E2E D2d|ded dcB|A3!fine! G2:| 
d|Bdd e2d|Bdd e2d|Bdd e2d|A2B cBA|Bdd e2d|Bdd e2d|ded dcB|A3 G2|| 

